X: 1064
T: A Theater Tune.
%R: air, waltz, jig
B: Henry Playford "Apollo's Banquet", London 1687 (5th Edition)
F: https://archive.org/details/apollosbanquetco01rugg
Z: 2017 John Chambers <jc:trillian.mit.edu>
M: 3/2
L: 1/8
K: Dm
% - - - - - - - - - -
a2 |\
f3ed2 ^c2A2d2 | ^c3de2 f3ga2 |\
_b2g2c'2 a2f2_b2 | g2fef2 e4 :: e2 |\
a2e2g2 f2d2a2 | b3ab2 g4g2 |
c'2a2b2 a2g2a2 | b2g3f f4f2 |\
e2a2e2 f2d2a2 | e2B2d2 ^c2e2a2 |\
b2g2fg a2A2f2 | e2e3d Hd4 |]
% - - - - - - - - - -

%%sep 1 1 500
%%sep 1 1 500

